X: 28564
T: Murphy From Wexford
R: slide
M: 12/8
K: Dmajor
|:A|F2A ABA G2B B2B|cBc ABc e2d cBA|
F2A ABA G2B B2B|cBc ABc d3d2:|
|:A|faf def g2f e2A|faf dcd e2d cBA|
faf def gfg ecA|~f3 gec d3 d2:|

